X: 20
T:A Hornpipe by Mr. Farrer's
M:3/2
L:1/4
S:Marsden
Z:ps
K:C
e2d/e/f/d/e2|Ac2efe/d/|e2d/e/f/d/e2|dd2DFE/D/||
GEFDEC|GE2CD/E/F/D/|GEFDC/D/E|A/G/ A/G/ADFD||
EcG/A/ G/E/ C/D/E/C/|cEE/F/ G/D/FD|EcG/A/ G/E/ C/D/E/C/|A/G/F/E/ D/C/D/E
/FD||
e/c/G/c/ e/c/G/c/ ed/c/|e/c/G/c/ e/c/G/c/ fe/d/|e/c/G/c/ e/c/G/c/ ed/c/|
d/E/ D/E/ d/E/ D/E/FD||
eccGA/B/ c/d/|ecc/d/e/c/ fe/d/|ecc/B/ A/G/ ED/C/|D/E/F/G/ AG/E/FD||
E/G/A/G/ E/G/ c/G/ED/C/|E/G/A/G/ E/G/A/G/ FD|E/G/A/G/ E/G/ c/G/ED/C/|D/E
/F/G/ A/G/ A/E/FD||
c2AG/A/ cd/e/|c2AG/A/BG|c2AG/A/ cd/e/|d/A/ d/A/ d/A/ d/A/FD||
